tellnet/images/satellite-dish.svg

<svg width="420" height="370" viewBox="0 0 420 370" fill="none" xmlns="http://www.w3.org/2000/svg">
<g filter="url(#filter0_d)">
<path d="M309.74 362C362.707 362 405.645 354.113 405.645 344.383C405.645 334.653 362.707 326.766 309.74 326.766C256.773 326.766 213.835 334.653 213.835 344.383C213.835 354.113 256.773 362 309.74 362Z" fill="#3F3D56"/>
<path d="M394.925 343.883C394.826 343.721 392.492 339.818 391.682 331.712C390.94 324.276 391.417 311.742 397.909 294.259C410.206 261.137 395.075 234.412 394.92 234.146L395.666 233.712C395.706 233.78 399.61 240.593 401.917 251.443C404.964 265.828 403.854 280.784 398.717 294.56C386.441 327.625 395.568 343.278 395.661 343.433L394.925 343.883Z" fill="#3F3D56"/>
<path d="M390.116 232.201C393.214 232.201 395.724 229.686 395.724 226.585C395.724 223.483 393.214 220.969 390.116 220.969C387.019 220.969 384.508 223.483 384.508 226.585C384.508 229.686 387.019 232.201 390.116 232.201Z" fill="#3F3D56"/>
<path d="M407.803 252.937C410.901 252.937 413.411 250.423 413.411 247.321C413.411 244.219 410.901 241.705 407.803 241.705C404.706 241.705 402.195 244.219 402.195 247.321C402.195 250.423 404.706 252.937 407.803 252.937Z" fill="#3F3D56"/>
<path d="M395.724 266.761C398.822 266.761 401.332 264.247 401.332 261.145C401.332 258.043 398.822 255.529 395.724 255.529C392.627 255.529 390.116 258.043 390.116 261.145C390.116 264.247 392.627 266.761 395.724 266.761Z" fill="#15234A"/>
<path d="M410.392 278.425C413.489 278.425 416 275.911 416 272.809C416 269.707 413.489 267.193 410.392 267.193C407.295 267.193 404.784 269.707 404.784 272.809C404.784 275.911 407.295 278.425 410.392 278.425Z" fill="#15234A"/>
<path d="M391.411 296.569C394.508 296.569 397.019 294.055 397.019 290.953C397.019 287.852 394.508 285.337 391.411 285.337C388.314 285.337 385.803 287.852 385.803 290.953C385.803 294.055 388.314 296.569 391.411 296.569Z" fill="#3F3D56"/>
<path d="M398.313 344.09C398.313 344.09 392.705 330.266 409.529 319.897L398.313 344.09Z" fill="#3F3D56"/>
<path d="M391.416 343.839C391.416 343.839 388.864 329.138 369.109 329.264L391.416 343.839Z" fill="#3F3D56"/>
<path d="M41.0356 182.137L129.563 242.375L137.993 235.868L145.453 236.516L131.266 250.331L41.0356 193.502V182.137Z" fill="#3F3D56"/>
<path d="M222.324 154.006L259.801 198.333L252.398 207.425L208.444 157.984L222.324 154.006Z" fill="#2F2E41"/>
<path d="M37.0631 179.295C41.7643 179.295 45.5753 174.97 45.5753 169.634C45.5753 164.299 41.7643 159.973 37.0631 159.973C32.3619 159.973 28.5508 164.299 28.5508 169.634C28.5508 174.97 32.3619 179.295 37.0631 179.295Z" fill="#15234A"/>
<path d="M233.842 150.886C249.058 93.7023 228.188 38.485 187.228 27.5544C146.267 16.6239 100.726 54.1193 85.5094 111.303C70.2929 168.486 91.1629 223.704 132.124 234.634C173.085 245.565 218.626 208.069 233.842 150.886Z" fill="#3F3D56"/>
<path d="M227.576 149.214C241.507 96.8624 222.401 46.3103 184.901 36.3032C147.401 26.2961 105.708 60.6234 91.7765 112.975C77.8455 165.327 96.9521 215.879 134.452 225.886C171.952 235.894 213.645 201.566 227.576 149.214Z" fill="#E6E6E6"/>
<path d="M143.75 129.286C144.691 129.286 145.453 128.522 145.453 127.581C145.453 126.639 144.691 125.876 143.75 125.876C142.81 125.876 142.048 126.639 142.048 127.581C142.048 128.522 142.81 129.286 143.75 129.286Z" fill="#15234A"/>
<path d="M134.103 169.634C135.044 169.634 135.806 168.871 135.806 167.929C135.806 166.988 135.044 166.224 134.103 166.224C133.163 166.224 132.401 166.988 132.401 167.929C132.401 168.871 133.163 169.634 134.103 169.634Z" fill="#15234A"/>
<path d="M181.772 132.695C182.712 132.695 183.474 131.932 183.474 130.991C183.474 130.049 182.712 129.286 181.772 129.286C180.832 129.286 180.069 130.049 180.069 130.991C180.069 131.932 180.832 132.695 181.772 132.695Z" fill="#15234A"/>
<path d="M172.125 173.612C173.065 173.612 173.827 172.849 173.827 171.907C173.827 170.966 173.065 170.203 172.125 170.203C171.185 170.203 170.422 170.966 170.422 171.907C170.422 172.849 171.185 173.612 172.125 173.612Z" fill="#15234A"/>
<path d="M43.8732 196.344L38.2892 197.463L38.1984 197.48L25.1462 194.071L21.1738 167.929L23.58 166.804L29.6861 163.951C40.4683 163.951 42.7383 170.202 42.7383 170.202L43.8732 196.344Z" fill="#3F3D56"/>
<path opacity="0.1" d="M38.2892 197.463L38.1984 197.48L25.1462 194.071L21.1738 167.929L23.58 166.804C28.5568 167.463 34.3792 168.878 36.4959 171.907L38.2892 197.463Z" fill="black"/>
<path d="M65.152 132.412C64.8457 132.411 64.5451 132.328 64.2822 132.171C47.4943 122.155 31.1719 122.155 14.384 132.171C13.9961 132.401 13.5329 132.468 13.0959 132.357C12.6588 132.246 12.2838 131.965 12.0529 131.577C11.8221 131.189 11.7544 130.726 11.8647 130.288C11.9749 129.85 12.2541 129.474 12.6411 129.242C30.3528 118.675 48.3134 118.675 66.0251 129.242C66.3455 129.433 66.5942 129.724 66.7333 130.071C66.8723 130.417 66.8939 130.8 66.7948 131.16C66.6956 131.52 66.4812 131.837 66.1844 132.063C65.8876 132.29 65.5249 132.412 65.152 132.412H65.152Z" fill="#15234A"/>
<path d="M58.6258 146.54C58.3195 146.54 58.0189 146.457 57.756 146.3C45.1683 138.79 32.9302 138.79 20.3424 146.3C19.9546 146.53 19.4914 146.597 19.0544 146.486C18.6173 146.374 18.2423 146.094 18.0114 145.706C17.7806 145.318 17.7129 144.854 17.8232 144.416C17.9334 143.979 18.2126 143.602 18.5995 143.371C32.1693 135.275 45.9292 135.275 59.499 143.371C59.8193 143.562 60.0681 143.853 60.2071 144.199C60.3461 144.546 60.3677 144.929 60.2686 145.289C60.1694 145.649 59.955 145.966 59.6582 146.192C59.3614 146.418 58.9987 146.541 58.6258 146.54Z" fill="#15234A"/>
<path d="M70.2597 116.499C69.9533 116.5 69.6527 116.416 69.3898 116.259C52.6363 106.263 24.328 106.263 7.57439 116.259C7.38232 116.374 7.16946 116.45 6.94799 116.483C6.72652 116.515 6.5008 116.504 6.28373 116.449C6.06667 116.394 5.86254 116.297 5.68302 116.163C5.50349 116.029 5.3521 115.861 5.23751 115.669C5.12292 115.476 5.04738 115.263 5.01522 115.041C4.98306 114.819 4.9949 114.593 5.05007 114.376C5.10525 114.159 5.20267 113.954 5.33675 113.775C5.47084 113.595 5.63896 113.444 5.83149 113.33C23.5299 102.77 53.4343 102.77 71.1328 113.33C71.4531 113.521 71.7019 113.812 71.8409 114.159C71.98 114.505 72.0015 114.888 71.9024 115.248C71.8032 115.608 71.5888 115.925 71.292 116.151C70.9952 116.377 70.6326 116.5 70.2597 116.499H70.2597Z" fill="#15234A"/>
<path d="M349.883 310.747L353.477 325.145L337.662 329.465L336.224 314.346L349.883 310.747Z" fill="#FBBEBE"/>
<path d="M292.371 328.745V342.423L276.555 345.303L273.68 338.103L279.431 325.865L292.371 328.745Z" fill="#FBBEBE"/>
<path d="M324.002 179.723L321.846 199.161L323.283 236.596C323.283 236.596 325.44 236.596 325.44 238.756C325.44 240.916 323.283 240.196 325.44 241.635C326.597 242.422 327.797 243.143 329.035 243.795L352.039 313.626C352.039 313.626 346.288 320.826 335.505 318.666L333.348 311.467C333.348 311.467 329.035 307.147 329.035 304.988C329.035 302.828 330.472 302.108 329.035 299.948C327.597 297.788 306.03 253.874 306.03 253.874L295.966 235.876L293.09 260.353C293.09 260.353 298.841 291.309 297.403 305.707C295.966 320.106 293.09 335.224 293.09 335.224L275.837 332.344C275.758 330.021 275.009 327.77 273.68 325.865C271.523 322.985 268.648 323.705 271.523 321.545C274.399 319.386 277.993 321.545 275.118 318.666C272.242 315.786 272.242 312.906 272.242 312.906V310.747L267.929 255.314L260.021 182.603L324.002 179.723Z" fill="#2F2E41"/>
<path d="M275.118 48.6996C285.838 48.6996 294.528 39.9971 294.528 29.262C294.528 18.527 285.838 9.82446 275.118 9.82446C264.398 9.82446 255.708 18.527 255.708 29.262C255.708 39.9971 264.398 48.6996 275.118 48.6996Z" fill="#FBBEBE"/>
<path d="M292.012 29.6222L299.919 49.0597L281.228 62.738L269.726 42.5804L292.012 29.6222Z" fill="#FBBEBE"/>
<path d="M293.09 44.3801L300.279 40.7805L304.592 50.8593C304.592 50.8593 332.629 59.4982 330.472 99.0932C328.315 138.688 323.283 153.806 323.283 153.806C323.283 153.806 335.504 179.723 328.315 182.603C321.127 185.482 260.021 196.281 258.583 186.202C257.145 176.124 263.615 117.091 263.615 117.091C263.615 117.091 261.459 74.6163 279.431 65.9774L275.836 58.0584L293.09 44.3801Z" fill="#15234A"/>
<path d="M253.551 184.043C253.551 184.043 237.017 201.321 246.362 205.64C255.708 209.96 261.459 186.202 261.459 186.202L253.551 184.043Z" fill="#FBBEBE"/>
<path d="M287.339 338.823L295.247 335.944C295.247 335.944 303.874 355.381 296.685 355.381H277.993C277.993 355.381 267.21 351.782 261.459 351.782C255.708 351.782 244.924 340.983 252.832 335.944C260.74 330.904 270.805 332.344 270.805 332.344L273.68 325.865L277.275 335.944C277.275 335.944 281.588 343.143 287.339 338.823Z" fill="#2F2E41"/>
<path d="M345.569 322.985C345.569 322.985 350.071 320.141 352.493 321.203C354.915 322.265 356.353 333.784 356.353 333.784C356.353 333.784 363.542 342.423 347.726 343.863C331.91 345.302 328.316 342.423 326.878 338.103C325.44 333.784 328.316 329.464 328.316 329.464L332.629 328.025C332.629 328.025 337.662 324.425 336.224 322.985C334.786 321.545 336.224 318.666 336.224 318.666C336.224 318.666 341.256 328.744 345.569 322.985Z" fill="#2F2E41"/>
<path d="M281.757 28.9506C281.678 28.3215 281.536 27.7019 281.335 27.1009C280.291 24.9092 276.221 25.5489 275.496 23.2321C275.354 22.7787 275.383 22.2854 275.244 21.8311C274.89 20.6726 273.529 20.0981 272.32 20.1537C271.112 20.2093 269.98 20.7266 268.816 21.0574C265.972 21.8656 262.946 21.5571 260.007 21.242C258.708 21.1027 257.359 20.9473 256.246 20.2616C255.133 19.5758 254.331 18.1954 254.736 16.9511C255.125 15.7582 256.428 15.1026 257.014 13.9936C257.945 12.2325 256.807 9.95799 257.563 8.1145C258.774 5.15726 263.358 5.75106 265.686 3.56526C266.252 3.0347 266.659 2.35646 267.201 1.80189C268.808 0.156543 271.347 -0.161962 273.634 0.0650249C275.922 0.292012 278.169 0.964655 280.468 0.923954C282.647 0.885353 284.932 0.220688 286.94 1.06965C288.158 1.58472 289.089 2.59221 289.98 3.57088L295.132 9.22834C295.839 9.89622 296.384 10.7179 296.724 11.6299C297.034 12.7139 296.748 13.8777 296.88 14.9974C297.182 17.5512 299.569 19.4801 299.892 22.0313C299.957 22.8225 299.918 23.6188 299.778 24.4002L299.056 29.7278C299.02 30.2473 298.882 30.7546 298.65 31.2207C298.44 31.5797 298.123 31.8632 297.887 32.2054C297.22 33.1715 297.281 34.4486 296.949 35.5752C296.618 36.7017 295.429 37.8167 294.389 37.2737C293.711 36.9195 293.262 33.99 292.438 33.2295C291.291 32.1701 290.691 32.3007 289.274 32.3186C286.437 32.3545 282.665 32.5981 281.757 28.9506Z" fill="#2F2E41"/>
<path d="M285.182 71.0168C285.182 71.0168 306.749 79.6558 300.279 99.0933C293.809 118.531 276.556 178.283 276.556 178.283L266.491 183.323L263.616 191.242L249.957 186.202L252.113 175.404C252.113 175.404 252.832 174.684 252.832 171.804C252.832 168.925 249.957 168.205 253.551 168.205C257.145 168.205 257.145 164.605 257.145 164.605L270.086 83.9752C270.086 83.9752 270.086 70.2969 285.182 71.0168Z" fill="#15234A"/>
<path opacity="0.1" d="M301.357 103.053L279.072 179.363L269.726 188.722L275.118 179.003L301.357 103.053Z" fill="black"/>
</g>
<defs>
<filter id="filter0_d" x="0.997559" y="0" width="419.002" height="370" filterUnits="userSpaceOnUse" color-interpolation-filters="sRGB">
<feFlood flood-opacity="0" result="BackgroundImageFix"/>
<feColorMatrix in="SourceAlpha" type="matrix" values="0 0 0 0 0 0 0 0 0 0 0 0 0 0 0 0 0 0 127 0"/>
<feOffset dy="4"/>
<feGaussianBlur stdDeviation="2"/>
<feColorMatrix type="matrix" values="0 0 0 0 0 0 0 0 0 0 0 0 0 0 0 0 0 0 0.25 0"/>
<feBlend mode="normal" in2="BackgroundImageFix" result="effect1_dropShadow"/>
<feBlend mode="normal" in="SourceGraphic" in2="effect1_dropShadow" result="shape"/>
</filter>
</defs>
</svg>

<svg width="420" height="370" fill="none" xmlns="http://www.w3.org/2000/svg"><g filter="url(#filter0_d)"><path d="M309.74 362c52.967 0 95.905-7.887 95.905-17.617s-42.938-17.617-95.905-17.617-95.905 7.887-95.905 17.617S256.773 362 309.74 362z" fill="#3F3D56"/><path d="M394.925 343.883c-.099-.162-2.433-4.065-3.243-12.171-.742-7.436-.265-19.97 6.227-37.453 12.297-33.122-2.834-59.847-2.989-60.113l.746-.434c.04.068 3.944 6.881 6.251 17.731a77.466 77.466 0 0 1-3.2 43.117c-12.276 33.065-3.149 48.718-3.056 48.873l-.736.45zM390.116 232.201a5.612 5.612 0 0 0 5.608-5.616 5.611 5.611 0 0 0-5.608-5.616 5.612 5.612 0 0 0-5.608 5.616 5.613 5.613 0 0 0 5.608 5.616z" fill="#3F3D56"/><path d="M407.803 252.937a5.611 5.611 0 0 0 5.608-5.616 5.611 5.611 0 0 0-5.608-5.616 5.612 5.612 0 0 0-5.608 5.616 5.612 5.612 0 0 0 5.608 5.616z" fill="#3F3D56"/><path d="M395.724 266.761a5.611 5.611 0 0 0 5.608-5.616 5.611 5.611 0 0 0-5.608-5.616 5.612 5.612 0 0 0-5.608 5.616 5.612 5.612 0 0 0 5.608 5.616zM410.392 278.425a5.612 5.612 0 0 0 5.608-5.616 5.612 5.612 0 0 0-5.608-5.616 5.612 5.612 0 0 0-5.608 5.616 5.612 5.612 0 0 0 5.608 5.616z" fill="#15234A"/><path d="M391.411 296.569a5.612 5.612 0 0 0 5.608-5.616 5.613 5.613 0 0 0-5.608-5.616 5.613 5.613 0 0 0-5.608 5.616 5.612 5.612 0 0 0 5.608 5.616zM398.313 344.09s-5.608-13.824 11.216-24.193l-11.216 24.193zM391.416 343.839s-2.552-14.701-22.307-14.575l22.307 14.575zM41.036 182.137l88.527 60.238 8.43-6.507 7.46.648-14.187 13.815-90.23-56.829v-11.365z" fill="#3F3D56"/><path d="M222.324 154.006l37.477 44.327-7.403 9.092-43.954-49.441 13.88-3.978z" fill="#2F2E41"/><path d="M37.063 179.295c4.701 0 8.512-4.325 8.512-9.661 0-5.335-3.81-9.661-8.512-9.661-4.701 0-8.512 4.326-8.512 9.661 0 5.336 3.81 9.661 8.512 9.661z" fill="#15234A"/><path d="M233.842 150.886c15.216-57.184-5.654-112.401-46.614-123.332-40.961-10.93-86.502 26.565-101.719 83.749-15.216 57.183 5.654 112.401 46.615 123.331 40.961 10.931 86.502-26.565 101.718-83.748z" fill="#3F3D56"/><path d="M227.576 149.214c13.931-52.352-5.175-102.904-42.675-112.91-37.5-10.008-79.193 24.32-93.125 76.671-13.93 52.352 5.176 102.904 42.676 112.911 37.5 10.008 79.193-24.32 93.124-76.672z" fill="#E6E6E6"/><path d="M143.75 129.286a1.704 1.704 0 0 0 0-3.41c-.94 0-1.702.763-1.702 1.705 0 .941.762 1.705 1.702 1.705zM134.103 169.634a1.704 1.704 0 1 0 0-3.41c-.94 0-1.702.764-1.702 1.705 0 .942.762 1.705 1.702 1.705zM181.772 132.695c.94 0 1.702-.763 1.702-1.704a1.703 1.703 0 1 0-1.702 1.704zM172.125 173.612c.94 0 1.702-.763 1.702-1.705a1.703 1.703 0 1 0-3.405 0c0 .942.763 1.705 1.703 1.705z" fill="#15234A"/><path d="M43.873 196.344l-5.584 1.119-.09.017-13.053-3.409-3.972-26.142 2.406-1.125 6.106-2.853c10.782 0 13.052 6.251 13.052 6.251l1.135 26.142z" fill="#3F3D56"/><path opacity=".1" d="M38.29 197.463l-.092.017-13.052-3.409-3.972-26.142 2.406-1.125c4.977.659 10.8 2.074 12.916 5.103l1.793 25.556z" fill="#000"/><path d="M65.152 132.412a1.707 1.707 0 0 1-.87-.241c-16.788-10.016-33.11-10.016-49.898 0a1.703 1.703 0 0 1-1.743-2.929c17.712-10.567 35.672-10.567 53.384 0a1.702 1.702 0 0 1 .77 1.918 1.703 1.703 0 0 1-1.643 1.252zM58.626 146.54c-.306 0-.607-.083-.87-.24-12.588-7.51-24.826-7.51-37.414 0a1.703 1.703 0 0 1-1.742-2.929c13.57-8.096 27.33-8.096 40.899 0a1.704 1.704 0 0 1 .16 2.821c-.298.226-.66.349-1.033.348zM70.26 116.499a1.687 1.687 0 0 1-.87-.24c-16.754-9.996-45.062-9.996-61.816 0a1.71 1.71 0 0 1-1.29.19 1.703 1.703 0 0 1-.947-2.674 1.69 1.69 0 0 1 .494-.445c17.699-10.56 47.603-10.56 65.302 0a1.701 1.701 0 0 1 .77 1.918 1.703 1.703 0 0 1-1.643 1.251z" fill="#15234A"/><path d="M349.883 310.747l3.594 14.398-15.815 4.32-1.438-15.119 13.659-3.599zM292.371 328.745v13.678l-15.816 2.88-2.875-7.2 5.751-12.238 12.94 2.88z" fill="#FBBEBE"/><path d="M324.002 179.723l-2.156 19.438 1.437 37.435s2.157 0 2.157 2.16-2.157 1.44 0 2.879a37.271 37.271 0 0 0 3.595 2.16l23.004 69.831s-5.751 7.2-16.534 5.04l-2.157-7.199s-4.313-4.32-4.313-6.479c0-2.16 1.437-2.88 0-5.04-1.438-2.16-23.005-46.074-23.005-46.074l-10.064-17.998-2.876 24.477s5.751 30.956 4.313 45.354c-1.437 14.399-4.313 29.517-4.313 29.517l-17.253-2.88a12.04 12.04 0 0 0-2.157-6.479c-2.157-2.88-5.032-2.16-2.157-4.32 2.876-2.159 6.47 0 3.595-2.879-2.876-2.88-2.876-5.76-2.876-5.76v-2.159l-4.313-55.433-7.908-72.711 63.981-2.88z" fill="#2F2E41"/><path d="M275.118 48.7c10.72 0 19.41-8.703 19.41-19.438s-8.69-19.438-19.41-19.438-19.41 8.703-19.41 19.438 8.69 19.438 19.41 19.438z" fill="#FBBEBE"/><path d="M292.012 29.622l7.907 19.438-18.691 13.678-11.502-20.158 22.286-12.958z" fill="#FBBEBE"/><path d="M293.09 44.38l7.189-3.6 4.313 10.08s28.037 8.638 25.88 48.233-7.189 54.713-7.189 54.713 12.221 25.917 5.032 28.797c-7.188 2.879-68.294 13.678-69.732 3.599-1.438-10.078 5.032-69.111 5.032-69.111s-2.156-42.475 15.816-51.114l-3.595-7.919L293.09 44.38z" fill="#15234A"/><path d="M253.551 184.043s-16.534 17.278-7.189 21.597c9.346 4.32 15.097-19.438 15.097-19.438l-7.908-2.159z" fill="#FBBEBE"/><path d="M287.339 338.823l7.908-2.879s8.627 19.437 1.438 19.437h-18.692s-10.783-3.599-16.534-3.599c-5.751 0-16.535-10.799-8.627-15.838 7.908-5.04 17.973-3.6 17.973-3.6l2.875-6.479 3.595 10.079s4.313 7.199 10.064 2.879zM345.569 322.985s4.502-2.844 6.924-1.782c2.422 1.062 3.86 12.581 3.86 12.581s7.189 8.639-8.627 10.079c-15.816 1.439-19.41-1.44-20.848-5.76-1.438-4.319 1.438-8.639 1.438-8.639l4.313-1.439s5.033-3.6 3.595-5.04c-1.438-1.44 0-4.319 0-4.319s5.032 10.078 9.345 4.319zM281.757 28.95a9.607 9.607 0 0 0-.422-1.85c-1.044-2.19-5.114-1.551-5.839-3.868-.142-.453-.113-.947-.252-1.4-.354-1.16-1.715-1.734-2.924-1.678-1.208.055-2.34.573-3.504.903-2.844.809-5.87.5-8.809.185-1.299-.14-2.648-.295-3.761-.98-1.113-.686-1.915-2.067-1.51-3.31.389-1.194 1.692-1.85 2.278-2.958.931-1.761-.207-4.036.549-5.88 1.211-2.957 5.795-2.363 8.123-4.549.566-.53.973-1.209 1.515-1.763 1.607-1.645 4.146-1.964 6.433-1.737 2.288.227 4.535.9 6.834.859 2.179-.039 4.464-.703 6.472.146 1.218.515 2.149 1.522 3.04 2.5l5.152 5.658a6.36 6.36 0 0 1 1.592 2.402c.31 1.084.024 2.248.156 3.367.302 2.554 2.689 4.483 3.012 7.034a9.174 9.174 0 0 1-.114 2.37l-.722 5.327a3.966 3.966 0 0 1-.406 1.493c-.21.359-.527.642-.763.984-.667.967-.606 2.244-.938 3.37-.331 1.127-1.52 2.242-2.56 1.699-.678-.355-1.127-3.284-1.951-4.044-1.147-1.06-1.747-.93-3.164-.911-2.837.035-6.609.28-7.517-3.368z" fill="#2F2E41"/><path d="M285.182 71.017s21.567 8.639 15.097 28.076c-6.47 19.438-23.723 79.19-23.723 79.19l-10.065 5.04-2.875 7.919-13.659-5.04 2.156-10.798s.719-.72.719-3.6c0-2.879-2.875-3.599.719-3.599s3.594-3.6 3.594-3.6l12.941-80.63s0-13.678 15.096-12.958z" fill="#15234A"/><path opacity=".1" d="M301.357 103.053l-22.285 76.31-9.346 9.359 5.392-9.719 26.239-75.95z" fill="#000"/></g><defs><filter id="filter0_d" x=".998" y="0" width="419.002" height="370" filterUnits="userSpaceOnUse" color-interpolation-filters="sRGB"><feFlood flood-opacity="0" result="BackgroundImageFix"/><feColorMatrix in="SourceAlpha" values="0 0 0 0 0 0 0 0 0 0 0 0 0 0 0 0 0 0 127 0"/><feOffset dy="4"/><feGaussianBlur stdDeviation="2"/><feColorMatrix values="0 0 0 0 0 0 0 0 0 0 0 0 0 0 0 0 0 0 0.25 0"/><feBlend in2="BackgroundImageFix" result="effect1_dropShadow"/><feBlend in="SourceGraphic" in2="effect1_dropShadow" result="shape"/></filter></defs></svg>
